X: 903
T: Corney Drew's Hornpipe   #2
R: hornpipe
%S: s:2 b:12(6+6)
B: Francis O'Neill: "The Dance Music of Ireland" (1907) #903
Z: Frank Nordberg - http://www.musicaviva.com
F: http://www.musicaviva.com/abc/tunes/ireland/oneill-1001/0903/oneill-1001-0903-1.abc
M: 2/4
L: 1/16
K: G
  (3DEF |: G2GF GABd | e2de gedB |[1,3 edef gedB | AGAB AcBA :|[2,4  egde    BdAB | G2GG G2 :|
|:(3def |  g2fg a2ga | bgaf gfed |[1,3 cBcd agfe | d^cde d2  :|[2,4 (3def de BdAB | G2GG G2 :|
